!!!!SEGMENT: pl-wumfc--n8918--001-004_szymanowski-karol--dwanascie-piesni-op-17-iv-noca-gdy-na-polach-mrok-zapada.krn
!!!cenid: 19xx:76
!!!COM: Szymanowski, Karol
!!!COM-rismID: pe30106403
!!!CDT: 1882-1937
!!!CNT: Polish
!!!GTL: Dwanaście pieśni Op. 17
!!!OTL: IV. Nocą/Gdy na polach mrok zapada
!!!OMV: 004
!!!PDT:
!!!AGN: Secular; Song
!!!YEC: Copyright 2022 Narodowy Instytut Fryderyka Chopina (https://polishscores.org)
!!!YEM: License CC-BY-4.0 (https://creativecommons.org/licenses/by/4.0)
!!!SMS-siglum: PL-Wumfc
!!!SMS-shelfmark: N8918
!!!SMS-variant:
!!!SMS-altvar:
!!!SMS-shelfwork: 001-004 G
!!!NIFC-rismSourceID: 1001170644
!!!NIFC-rismChildID: 1001170649
!!!NIFC-islandoraID: pl-wumfc:7726
!!!URL-pdf-islandora: https://repozytorium.nifc.pl/islandora/object/pl-wumfc%3A7726/datastream/PDF/view
!!!URL-scan: https://polish.musicsources.pl/pl/lokalizacje/galeria/druki-muzyczne/12685/5 @EN{Scan on Polish Music Sources Website} @PL{Skany w portalu Dziedzictwo Muzyki Polskiej w otwartym dostępie}
!!!IIIF:
!!!ONB-nifc: UWAGA: str. 5-6.
!!!OMD: Andante ma non troppo.
!!!AIN: 1 piano 1 vox
!!!key: none
**kern	**kern	**fing	**dynam	**kern	**text	**text	**dynam
*part2	*part2	*part2	*part2	*part1	*part1	*part1	*part1
*staff3	*staff2	*staff2	*	*staff1	*staff1	*staff1	*
*ICklav	*ICklav	*	*	*ICvox	*	*	*
*Ipiano	*Ipiano	*	*	*Ivox	*	*	*
*I"Piano.	*I"Piano.	*	*	*I"Canto.	*	*	*
*clefF4	*clefG2	*	*	*clefG2	*	*	*
*k[]	*k[]	*	*	*k[]	*	*	*
*B:	*B:	*	*	*B:	*	*	*
*M9/8	*M9/8	*	*	*M9/8	*	*	*
[4.FFF#X/ [<4.FF#X	4r	.	pp	4r	.	.	.
.	8r	.	.	8r	.	.	.
=1	=1	=1	=1	=1	=1	=1	=1
*^	*	*	*	*	*	*	*
*	*^	*	*	*	*	*	*	*
!	!	!	!LO:TX:b:i:t=legato	!	!	!	!	!	!
(4.f#X/	4FFF#\] 4FF#]	[<2.F#X\	(8dd#X\L 8bb 8ddd#X	.	>	4r	.	.	.
.	.	.	8gg\	.	.	.	.	.	.
.	4.ryy	.	8ff#X\J 8aa#X	.	.	8r	.	.	.
4.g/	.	.	8ee#X\L 8bb	.	.	4r	.	.	.
.	.	.	8ddn\	.	.	.	.	.	.
.	2ryy	.	8cc#X\J 8ee#	.	.	8r	.	.	.
!	!	!	!	!	!	!	!	!	!LO:DY:a
!	!	!	!	!	!	!	!	!	!LO:HP:a
8g#X/)	.	4.F#\_<	8b#X\L 8ff#	.	.	4anZ/	Wenn	<i>Gdy	p <
8rd	.	.	8a\	.	.	.	.	.	.
8rd	.	.	8g#X\J) 8b#	.	]	8b#X\	die	<i>na	.
=2	=2	=2	=2	=2	=2	=2	=2	=2	=2
*	*	*	*^	*	*	*	*	*	*
4.e/	8F#\]	8%9ryy	(4cc#X/	[4gn\ [4bn [4cc#	.	<	4cc#X\	Fel-	<i>po-	.
.	(4F#X\	.	.	.	.	.	.	.	.	.
.	.	.	[<8d#/ [>8dd#	8g\] 8b] 8cc#]	.	.	8dd#X\	-der	-<i>lach	.
4.c#X/	8F#\)	.	4d#/] 4dd#]	4.g\ 4.b 4.cc#	.	.	4dd#\	sich	<i>mrok	.
.	(4D#X\	.	.	.	.	.	.	.	.	.
.	.	.	[<8e/ [8ee	.	.	.	8ee\	ver-	<i>za-	.
!	!	!	!LO:TX:b:i:t=rit.	!	!	!	!	!	!	!
4.B-X/	8D#\)	.	8e/L] 8ee]	4.a-X\ 4.ccn	.	[	[4.ee\	-dun-	-<i>pa-	[
.	4Cn\	.	8f#X/ 8ff#X	.	.	.	.	.	.	.
.	.	.	8g/J) 8gg	.	.	.	.	.	.	.
*	*	*	*v	*v	*	*	*	*	*	*
!!LO:LB:g=original
=3	=3	=3	=3	=3	=3	=3	=3	=3	=3
!	!	!	!	!	!	!	!	!	!LO:HP:a
4rc	8BBB\	[<2.BB\	(>8g#X/L 8ee 8gg#X	.	.	4ee\]	.	.	>
.	8ryy	.	8cc/	.	.	.	.	.	.
([<8Bn/	8ryy	.	8b/J 8dd#X	.	.	8b\	-keln,	-<i>da,	]
8B/]	4ryy	.	8a#X/L 8ee	.	.	4r	.	.	.
4cn/	.	.	8gn/	.	<	.	.	.	.
.	2ryy	.	8f#X/J 8a#X	.	.	8r	.	.	.
!	!	!	!	!	!	!	!	!	!LO:HP:a
4c#X/)	.	4.BB\_<	8e#X/L 8b	.	.	4b\	fühl	<i>czu-	<
.	.	.	8d/	.	.	.	.	.	.
8r	.	.	8c#X/J) 8e#X	.	[[	8b\	ich	-<i>ję,	[[
*	*v	*v	*	*	*	*	*	*	*
=4	=4	=4	=4	=4	=4	=4	=4	=4
*	*	*^	*	*	*	*	*	*
!	!	!	!	!	!	!	!	!	!LO:DY:a:rj
4.An/	8BB\]	(>[4cn/ [4en [<4f#X	4.ryy	.	mf	4ff#X^^\	wird	<i>jaś-	mf
.	(4BB\	.	.	.	.	.	.	.	.
!	!	!	!	!	!	!	!	!	!LO:HP:a
.	.	[<8G#X/ 8c] 8e] 8f#] [8g#X	.	.	.	8ee#X\	mein	-<i>niej	>
4.F#X/	8BB\)	4G#/] 4g#]	4.c\ 4.e 4.f#	.	.	4een\	Au-	<i>wi-	.
.	(4GG#X\	.	.	.	.	.	.	.	.
.	.	[<8A/ [8a	.	.	.	8dd#X\	-ge	-<i>dzą	.
!	!	!LO:TX:b:i:t=rall.	!	!	!	!	!	!	!
4.D#X/	8GG#\)	4A/_< 4a_	4c#X\ 4e#X	.	.	4cc#X\	hel-	<i>o-	.
.	4EE#X\	.	.	.	.	.	.	.	.
.	.	16A/LL] 16a]	8ryy	.	.	8b#X\	-ler;	-<i>czy;	]
.	.	16A#X/JJ) 16a#X	.	.	.	.	.	.	.
*	*	*v	*v	*	*	*	*	*	*
=5	=5	=5	=5	=5	=5	=5	=5	=5
!	!	!	!	!	!LO:TX:a:i:t=a tempo dolce	!	!	!
(>8FFF#X/L 8FF#X	4.ryy	(>4.A/ 4.Bn 4.d#X 4.b	.	pp <	8r	.	.	.
!	!	!	!	!	!	!	!	!LO:HP:a
8E#X/	.	.	.	.	[4bn^^\	schon	<i>wnet	<
8F#X/J	.	.	.	.	.	.	.	.
4.B/	8A\L	4.dn/ 4.f#X	.	.	4b\]	.	.	.
.	8F##X\	.	.	.	.	.	.	.
.	8G#X\J	.	.	[	8f#X/	ver-	<i>się	[
!	!	!	!	!	!	!	!	!LO:HP:a
4.cn/	8B-X\L	4d#X/ 4f##X	.	>	4f##X/	-sucht	<i>zja-	>
.	8A\	.	.	.	.	.	.	.
.	8A-X\J)	8e/) 8g#X	.	]]	8g#X/	ein	-<i>wi	]]
*v	*v	*	*	*	*	*	*	*
!!LO:LB:g=original
=6	=6	=6	=6	=6	=6	=6	=6
*M12/8	*M12/8	*	*	*M12/8	*	*	*
*^	*^	*	*	*	*	*	*
(>8FFF#X/L 8FF#X	4.ryy	(>16%3An/L [>16%3dn 16%3an	2.ryy	.	pp	(16%3an/L	Stern-	<i>gwiazd	.
8En/	.	.	.	.	.	.	.	.	.
.	.	16%3A-X/J 16%3d] 16%3b-X	.	.	.	[16%3b-X/J	.	.	.
8Fn/J	.	.	.	.	.	.	.	.	.
!	!	!LO:TX:b:i:t=avvivando	!	!	!	!	!	!	!
4.B-X/	8A-X\L	4.d-X/) 4.fn	.	.	.	4b-/])	.	.	.
.	8F#X\	.	.	.	.	.	.	.	.
.	8G\J)	.	.	.	.	8cc#X\	-zu	<i>gro-	.
!	!	!	!	!	!	!	!	!	!LO:HP:a
4.Bn/	(>8An\L	(8f#X/L	4dn\	.	.	[4.cc#\	fun-	-<i>ma-	<
.	8G#X\	8g#X/	.	.	<	.	.	.	.
.	8F#X\J)	8an/J) 8cc#X	8en\	.	.	.	.	.	.
4.d#X/	(>8c#\L	(8a#X/L	4f#X\	.	.	8cc#\]	.	.	.
.	8B#X\	8b#X/	.	.	.	8a#X/	-keln,	-<i>da,	.
.	8A#X\J)	8cc#X/J) 8ee#X	8g#X\	.	.	8r	.	.	.
*v	*v	*	*	*	*	*	*	*	*
*	*v	*v	*	*	*	*	*	*
=7	=7	=7	=7	=7	=7	=7	=7
*M9/8	*M9/8	*	*	*M9/8	*	*	*
*^	*	*	*	*	*	*	*
8G#X/ 8dn	8ryy	(8f#X/L 8dd 8ff#X	.	mp	8r	.	.	.
(8GG#X/L	4GGG#X\ [4GG#	8bn/	.	.	8ff#X\	und	<i>gra-	.
8A#X/J	.	8b-X/J 8dd	.	.	8ddn\	die	-<i>ją	.
4.Bn/	2.GG#\]	8an/L 8ee-X	.	>	16%3ee-X\	Gril-	<i>swier-	.
.	.	8g-X/	.	.	.	.	.	.
.	.	.	.	.	16%3dd\	-len	-<i>szcze	.
.	.	8fn/J 8a	.	.	.	.	.	.
8cn/)	.	8en/L 8b-X	.	]	4dd-X\	wis-	<i>na	.
!	!	!LO:TX:b:i:t=rall.	!	!	!	!	!	!
4r	.	8d-X/	.	.	.	.	.	.
.	.	8cn/J) 8e	.	.	8ccn\	-pern	<i>gór	.
*v	*v	*	*	*	*	*	*	*
=8	=8	=8	=8	=8	=8	=8	=8
*M12/8	*M12/8	*	*	*M12/8	*	*	*
*	*^	*	*	*	*	*	*
*	*	*^	*	*	*	*	*	*
!	!	!	!	!	!	!LO:TX:a:i:t=poco più mosso	!	!	!LO:HP:a
4.FFF#X/ 4.FF#X	(4An/ 4f#X	8dn\L	4.ryy	.	ppp	4.bn\	schnel-	<i>zbo-	>
.	.	8c#X\	.	.	.	.	.	.	.
.	8g#X/	8cn\J	.	.	.	.	.	.	.
8DDD#X/L 8DD#X	4.B/ [4.a	4f#\	4.ryy	.	<	4a/	-ler.	-<i>czy.	]
(8G#X/	.	.	.	.	.	.	.	.	.
8A/J)	.	8e#X\	.	.	.	8r	.	.	.
8DDDn/L 8DDn	4a/]	4.cn\ 4.f#	4.ryy	.	.	4r	.	.	.
(8A#X/	.	.	.	.	.	.	.	.	.
8B/J)	8g#X/	.	.	.	.	8r	.	.	.
4.CCC#X/ 4.CC#X	4b/	4c\	8en\	.	.	8r	.	.	.
!	!LO:TX:b:i:t=rit.	!	!	!	!	!	!	!	!
.	.	.	4e#X\	.	[	8b\	Je-	<i>Każ-	.
.	8a#X/)	8c#X\	.	.	.	8a#X/	-der	-<i>dy	.
!!LO:PB:g=original
=9	=9	=9	=9	=9	=9	=9	=9	=9	=9
4.AAA/ 4.AA	(4cn/ 4an	8fn\L	4.ryy	.	pp	[4.an/	Laut	<i>dźwięk	.
.	.	8e\	.	.	.	.	.	.	.
.	8bn/	8e-X\J	.	.	.	.	.	.	.
!	!	!	!	!	!	!	!	!	!LO:HP:a
8FFF#X/L 8FF#X	4.d/ 4.cc	8a\L	4.ryy	.	<	4a/]	.	.	<
(8A#X/	.	8g#X\	.	.	.	.	.	.	.
8Bn/J)	.	8gn\J	.	.	.	8bn\	wird	<i>sie	.
4.DDDn/ 4.DDn	4cc/	4.c\ 4.d	8f#X/	.	.	4ccn\	bil-	<i>skrzy	.
.	.	.	4fn/	.	.	.	.	.	.
.	8bn/	.	.	.	.	8b\	-der-	<i>ko-	.
!LO:TX:t=P:problem=mixed beam	!	!	!	!	!	!	!	!	!
8EEE/L 8EE	4dd/	4.B\ 4.e- 4.g#X	4.ryy	.	[	4dd\	-rei-	-<i>lo-	.
(8e\	.	.	.	.	.	.	.	.	.
8E\J)	8cc#X/)	.	.	.	.	8cc#X\	-cher,	-<i>rem	.
*	*v	*v	*v	*	*	*	*	*	*
=10	=10	=10	=10	=10	=10	=10	=10
*^	*	*	*	*	*	*	*
8CCC/L 8CC	8ryy	8cn/ 8e-X 8a-X 8ccn	.	f >	8r	.	.	.
*clefG2	*	*	*	*	*	*	*	*
!	!	!	!	!	!	!	!	!LO:DY:a:rj
(<8c/	4ryy	(8aa-X\L 8ccc	.	] ppp	8ff\	das	<i>Swiat	pp
!	!	!LO:TX:b:i:t=mister.	!	!	!LO:TX:a:i:t=mister.	!	!	!
8e-X/J	.	8ggn\J [<8bbn	.	.	8ee\	We-	<i>się	.
8g-X/L	4.ryy	8.bb\L] 8.eee-X	.	.	4ee-X\	-wohn-	<i>stro-	.
8bn/	.	.	.	.	.	.	.	.
.	.	16gg-X\K 16bb-X	.	.	.	.	.	.
8cc/J	.	8ff\J 8aan	.	.	8an/	-te	-<i>i	.
8dd-X\L)	4.ryy	4ff-X\ 4aa-X	.	.	[4.b-X\	son-	<i>w cu-	.
*clefF4	*	*	*	*	*	*	*	*
N(>8C\	.	.	.	.	.	.	.	.
[<8B-X\J	.	8ee-X\ 8ggn	.	.	.	.	.	.
!LO:TX:t=P:problem=mixed beam	!	!	!	!	!LO:TX:t=P:problem=duola	!	!	!
8.en/L	8B-\L]	4.ddn\) 4.ff#X	.	<	4b-\]	.	.	.
.	(>8C\	.	.	.	.	.	.	.
16f#X>\K	.	.	.	.	.	.	.	.
8g#X>\J)	[<8CC\J)	.	.	.	8cc\	-der	-<i>dów	.
!!LO:LB:g=original
=11	=11	=11	=11	=11	=11	=11	=11	=11
8CCC/L 8CC]	8ryy	8B-X/ 8d-X 8g-X 8b-X	.	[	4.b-X\	ba-	<i>dzi-	.
*clefG2	*	*	*	*	*	*	*	*
(<8B-X/	4ryy	(8gg-X\L 8bb-X	.	pp	.	.	.	.
8d-X/J	.	8ffn\J [<8aan	.	.	.	.	.	.
8f-X/L	4.ryy	8.aa\L] 8.ddd-X	.	.	4dd-X\	-rer,	-<i>wa,	.
8an/	.	.	.	.	.	.	.	.
.	.	16ff-X\K 16aa-X	.	.	.	.	.	.
8b-X/J	.	8ee-X\J 8ggn	.	.	8r	.	.	.
8bn\L)	8ryy	4ddn\ 4ff#X	.	.	4r	.	.	.
*clefF4	*	*	*	*	*	*	*	*
(8BB-X\	4ryy	.	.	.	.	.	.	.
[<8A-X\J	.	8dd-X\ 8ffn	.	.	8r	.	.	.
!LO:TX:t=P:problem=mixed beam	!	!	!	!	!	!	!	!
8.d-/L	8A-\L]	4.ccn\) 4.een	.	.	4r	.	.	.
.	(>8BBn\	.	.	.	.	.	.	.
16en>\K	.	.	.	.	.	.	.	.
8f#X>\J)	[<8BBB-X/J)	.	.	.	8r	.	.	.
*v	*v	*	*	*	*	*	*	*
=12	=12	=12	=12	=12	=12	=12	=12
*M6/8	*M6/8	*	*	*M6/8	*	*	*
*	*^	*	*	*	*	*	*
!LO:TX:t=P:problem=mixed beam	!	!	!	!LO:HP:b:t=cresc. e rall.:ext=s	!	!	!	!LO:HP:a:t=cresc. e rall.:ext=s
(8BBBB-X\L 8BBB-]	(>8d-X/L 8f-X 8a-X	4.ryy	.	<	8r	.	.	<
8A-X\	8dd-X/ 8ff-X	.	.	.	8dd-X\	hin-	<i>błę-	.
8cn\J	8ccn/J 8ee-X	.	.	.	8ccn\	-term	-<i>kit	.
!LO:TX:t=P:problem=mixed beam	!	!	!	!	!	!	!	!
8f\L	4ddn/ 4aa-X	8.cc-X\L	.	.	4ffn\	Wald	<i>bled-	.
8FF/	.	.	.	.	.	.	.	.
.	.	16b-X\K	.	.	.	.	.	.
8FFF/J)	8cc-/) [8ee-	8a-\J	.	.	8ee-X\	der	-<i>nie	.
*	*v	*v	*	*	*	*	*	*
=13	=13	=13	=13	=13	=13	=13	=13
*M9/8	*M9/8	*	*	*M9/8	*	*	*
*^	*^	*	*	*	*	*	*
!	!	!	!	!	!	!LO:TX:a:B:t=Tempo I.	!	!	!
(>16%3FFF#X/L 16%3FF#X	4.ryy	(8ee-/L]	8f-X\ 8b-X	.	mp	[4.ee-X\	Him-	<i>po-	.
.	.	8dd/	1ryy	.	.	.	.	.	.
[16%3C#X/J	.	.	.	.	.	.	.	.	.
.	.	8dd-X/J 8ff	.	.	>	.	.	.	.
!	!	!	!	!	!	!LO:TUP:a:r=4.:xbr	!	!	!
16%3c#X/L	4.C#\_	8ccn/L 8gg-X	.	.	.	16%3ee-\]	.	.	.
.	.	8an/	.	.	.	.	.	.	.
16%3dn/J	.	.	.	.	.	16%3dd\	-mel	-<i>nad	.
.	.	8g#X/J 8b#X	.	.	.	.	.	.	.
!	!	!	!	!	!	!LO:TUP:a:r=4.:xbr	!	!	!
4d#X/)	4C#\]	8gn/L 8cc#X	.	.	.	16%3dd-X\	blei-	<i>bo-	.
.	.	8en/	.	.	.	.	.	.	.
.	.	.	.	.	.	16%3gn/	-cher,	-<i>rem,	.
8rd	8r	8d#X/J) 8f##X	.	.	]	.	.	.	.
*	*	*v	*v	*	*	*	*	*	*
!!LO:LB:g=original
=14	=14	=14	=14	=14	=14	=14	=14	=14
!	!	!LO:TX:t=P:problem=mixed beam	!	!	!	!	!	!LO:HP:a:t=cre_scen_do:ext=ud
(>16%3DDD#X/L 16%3DD#X	4.ryy	8B#X/L 8f#X 8g#X	.	.	8r	.	.	<
!	!	!LO:TX:b:i:t=poco	!	!	!	!	!	!
.	.	(8aan\	.	.	8g#X/	je-	<i>w łu-	.
[16%3G#X/J	.	.	.	.	.	.	.	.
.	.	8gg#X\J 8bb#X	.	.	8g#/	-der	-<i>nach	.
8g#X/L	4.G#\_	8ff##X\L 8ccc#X	.	.	4a/	Wip-	<i>sto-	.
8a/	.	8eenZ\	.	.	.	.	.	.
8a#X/J	.	8dd#X\J 8ff##	.	.	8a#X/	-fel	-<i>ją	.
8b/)	8G#\]	8ddn\L 8gg#X	.	.	16%3bn\	hebt	<i>gór	.
8ryy	8r	8bn\	.	.	.	.	.	.
.	.	.	.	.	16%3ddn\	sich	<i>og-	.
8ryy	8r	[>8a#X\J 8dd	.	.	.	.	.	.
=15	=15	=15	=15	=15	=15	=15	=15	=15
*	*	*	*	*^	*	*	*	*
!	!	!	!	!LO:DY:b	!	!	!	!	!LO:HP:a
(>16%3CCC#X/L 16%3CC#X	4.ryy	8f#X/) 8a#X] 8dd#X	.	f	.	(2.dd#X\	kla-	-<i>ni-	[ >
.	.	(8ddd#X\L	.	>	.	.	.	.	.
*clefG2	*	*	*	*	*	*	*	*	*
[16%3c#X/J	.	.	.	.	.	.	.	.	.
.	.	8ccc#X\J 8eee#X	.	.	.	.	.	.	.
!	!	!	!	!	!LO:HP:t=dim.	!	!	!	!
8cc#X/L	2.c#\]	8bb#X\L 8fff#X	.	.	>	.	.	.	.
8dd/	.	8aan\	.	.	.	.	.	.	.
8dd#X/J	.	8gg#X\J 8bb#X	.	.	.	.	.	.	.
!	!	!LO:TX:b:i:t=rit.	!	!	!	!	!	!	!
8eenZ/L	.	8ff##X\L 8ccc#	.	]	.	16%3a#X/)	.	.	]
8cc#/	.	8ee\	.	.	.	.	.	.	.
.	.	.	.	.	.	16%3cc#X\	-rer;	-<i>wa;	]
8ccn/J)	.	8dd#X\J) 8ff##	.	.	.	.	.	.	.
*	*	*	*	*v	*v	*	*	*	*
*v	*v	*	*	*	*	*	*	*
=16	=16	=16	=16	=16	=16	=16	=16
*	*^	*	*	*	*	*	*
(8bn/L	([4gg#X/	[4ddn\ [4ff#X	.	pp <	2.r	.	.	.
8c#X/)	.	.	.	.	.	.	.	.
(<8g#X/J	[<8a/ [8aa	8dd\] 8ff#] 8gg#]	.	.	.	.	.	.
8A#X\L)	4a/] 4aa]	4.dd\ 4.ff# 4.gg#	.	.	.	.	.	.
*clefF4	*	*	*	*	*	*	*	*
(8fn\	.	.	.	.	.	.	.	.
8Gn\J)	[<8b/ [8bb	.	.	.	.	.	.	.
(8dn\L	8b/L] 8bb]	4.dd\ 4.ff# 4.gg#	.	.	4r	.	.	.
8En\J)	8cc/ 8ccc	.	.	.	.	.	.	.
8r	[<8cc#X/J) [8ccc#X	.	.	[	8r	.	.	.
!!LO:LB:g=original
=17	=17	=17	=17	=17	=17	=17	=17	=17
*^	*	*	*	*	*	*	*	*
!	!	!LO:TX:b:i:t=dolce	!	!	!	!	!	!	!
(>8GGG#X/L 8GG#X	4.ryy	4.cc#/] 4.ccc#]	(4.b\ 4.ee	.	pp	4r	.	.	.
8F##X/	.	.	.	.	.	.	.	.	.
!	!	!	!	!	!	!LO:TX:a:i:t=dolciss.	!	!	!
8G#X/J	.	.	.	.	.	8r	.	.	.
4.c#X/	8B\L	4.g#X\ 4.een 4.gg#X	2.ryy	.	>	4r	.	.	.
.	8A\	.	.	.	.	.	.	.	.
.	8A#X\J	.	.	.	.	8r	.	.	.
4.d/	8cn\L	4an\ 4ffn 4aan	.	.	.	4an/	Und	<i>i-	.
.	8B\	.	.	.	.	.	.	.	.
.	8B-X\J)	8a#X\) 8ff#X 8aa#X	.	.	.	8a#X/	du	-<i>dąc	.
*v	*v	*	*	*	*	*	*	*	*
*	*v	*v	*	*	*	*	*	*
=18	=18	=18	=18	=18	=18	=18	=18
*M12/8	*M12/8	*	*	*M12/8	*	*	*
*^	*	*	*	*	*	*	*
(8G#X\L 8Bn 8en	4.ryy	(4bn\ [4een 4bbn	.	] pp	(4bn\	merkst	<i>nie	p
8GG#X\	.	.	.	.	.	.	.	.
!	!	!	!	!LO:HP:t=molto cresc.:ext=s	!	!	!	!LO:HP:a:t=molto cresc.:ext=s
8Gn\J	.	8b-X\ 8ee] 8ccc	.	<	[8cc\	.	.	<
4.cn/	8B-X\L	4.gn\) 4.ee-X 4.ggn	.	.	4cc\])	.	.	.
.	8G#X\	.	.	.	.	.	.	.
.	8A\J)	.	.	.	8ee-X\	es	<i>spo-	.
(4c#X/	8Bn\L	(8g#X\L [8een 8gg#X	.	.	4ee-\	nicht	-<i>strze-	.
.	8A#X\	8a#X\ 8ee] 8aa#X	.	.	.	.	.	.
8b/)	8G#X\J	8dd#X\J) 8bb 8ddd#X	.	<	8ee-\	im	-<i>gasz	.
*clefG2	*	*	*	*	*	*	*	*
(4fn/	8e-X\L	(8ccn\L [8aa-X 8cccn	.	.	4ee-\	Schrei-	<i>wca-	.
.	8dn\	8ddn\ 8aa-] 8dddn	.	.	.	.	.	.
8ee-X/)	8cn\J	8ggn\J) 8eee-X 8gggn	.	[[	8cc\	-ten	-<i>le	.
*v	*v	*	*	*	*	*	*	*
=19	=19	=19	=19	=19	=19	=19	=19
*M9/8	*M9/8	*	*	*M9/8	*	*	*
*^	*	*	*	*^	*	*	*
8B-X/L 8f-X 8a-X 8dd-X	8ryy	(8aa-X\L 8fff-X 8aaa-X	.	f	8r	8ryy	.	.	.
*clefF4	*	*	*	*	*	*	*	*	*
8BBB-X/ NN[<8BB-X	4ryy	8ddd-X\	.	.	8gg#X/	8ee\	wie	<i>jak	.
!	!	!	!	!LO:HP:t=dim. e rall.:ext=s	!	!	!	!	!LO:HP:a
(8cn/J	.	8een\J 8cccn 8eeen	.	>	8ee/	8een\	das	<i>ty-	>
4.c#X/	2.BB-\NN]	8ffn\L 8bbn 8fffn	.	.	(4ffn\	2ryy	Licht	-<i>sią-	.
.	.	8aa-X\	.	.	.	.	.	.	.
.	.	8bn\J 8gg 8bb	.	.	8ee\	.	.	.	.
!	!	!	!	!	!LO:TX:b:i:t=rall.	!	!	!	!
4.dn/)	.	8cc\L 8ff#X 8ccc	.	.	4ee-X,\)	.	.	.	]
.	.	8ee-X\	.	.	.	4ryy	.	.	.
.	.	8fn\J 8ddn 8ffn	.	.	8a-X/	.	ver	-<i>ce	.
*v	*v	*	*	*	*v	*v	*	*	*
!!LO:PB:g=original
=20	=20	=20	=20	=20	=20	=20	=20
*M12/8	*M12/8	*	*	*M12/8	*	*	*
*	*^	*	*	*	*	*	*
*	*	*^	*	*	*	*	*	*
*	*	*	*	*	*^	*	*	*	*^
!	!	!	!	!	!	!	!LO:TX:a:t=più mosso	!	!	!LO:HP:a	!
8FFF#X/L 8AAAn 8DDn 8FF#X	(8an/L) 8ddn 8ff#X	4f#X\	4.ryy	.	pp <	.	[2.bn\	hun-	<i>swia-	<	.
(8D/	8c#X/	.	.	.	.	.	.	.	.	.	.
8A/J)	8cn/J 8g#X	8ryy	.	.	.	.	.	.	.	.	.
8DDD#X/L 8DD#X	4.Bn/ [4.an	4f#X\	4.ryy	.	.	.	.	.	.	.	.
(8G#X/	.	.	.	.	.	.	.	.	.	.	.
8A/J)	.	8e#X\	.	.	.	.	.	.	.	.	.
8DDDn/L 8DDn	4a/]	4.cn\ 4.f#	4.ryy	.	.	.	4.b\_	.	.	.	<
(8A#X/	.	.	.	.	.	.	.	.	.	.	.
8B/J)	8g#X/	.	.	.	.	<	.	.	.	.	.
4.CCC#X/ 4.CC#X	4b/	4c\	8en/	.	[	.	4b\]	.	.	.	.
!	!LO:TX:b:i:t=rit.	!	!	!	!	!	!	!	!	!	!
.	.	.	[>4e#X/	.	.	.	.	.	.	.	.
.	8b-X/)	8c#X\	.	.	.	.	8b-X\	-dert	-<i>teł	[	.
*	*	*	*	*	*v	*v	*	*	*	*	*
*	*	*	*	*	*	*	*	*	*v	*v
=21	=21	=21	=21	=21	=21	=21	=21	=21	=21
8AAAn/L 8AAn	(4.cn/ 4.an	8fn\L]	4ryy	.	.	[4.an/	fäl-	<i>zdrad-	.
(8Fn/	.	8en\	.	.	.	.	.	.	.
8cn/J)	.	8e-X\J	8bn/	.	.	.	.	.	.
8FFF#X/L 8FF#X	4.dn/ [>4.ccn	8an\L	4.ryy	.	.	8a/]	.	.	.
(8A#X/	.	8a-X\	.	.	.	8cc\	-tigt	-<i>nie	.
8B/J)	.	8g\J	.	.	.	8r	.	.	.
4.DDD/ 4.DD	4cc/]	4.c\ 4.d	8f#X/	.	.	4r	.	.	.
.	.	.	4fn/	.	.	.	.	.	.
.	8bn/	.	.	.	.	8r	.	.	.
!LO:TX:t=P:problem=mixed beam	!LO:TX:b:i:t=rit.	!	!	!	!	!	!	!	!
8EEE/L 8EE	4B/ 4en 4g#X 4dd	4.ryy	4.ryy	.	.	8r	.	.	.
8e\	.	.	.	.	.	8ddn\	sich	<i>cie-	.
8E\J	8c#X/) 8cc#X	.	.	.	.	8cc#X\	ent-	-<i>niom	.
*	*v	*v	*v	*	*	*	*	*	*
!!LO:LB:g=original
=22	=22	=22	=22	=22	=22	=22	=22
*^	*	*	*	*	*	*	*
!	!	!LO:TX:b:i:t=ten.	!	!	!	!	!	!
8CCCn/L 8EEE-X 8AAA-X 8CCn	4.ryy	8cn/ 8e-X 8a-X 8ccn	.	.	[4.ff\	-ringt	<i>się	.
*clefG2	*	*	*	*	*	*	*	*
8c/	.	(8aa-X\L 8cccn	.	f	.	.	.	.
8e-X/J	.	8gg\J [<8bbn	.	.	.	.	.	.
!	!	!	!	!	!	!	!	!LO:HP:a
8g-X/L	4.ryy	8.bb\L] 8.eee-X	.	>	4ff\],	.	<i>wy-	>
8bn/	.	.	.	.	.	.	.	.
.	.	16gg-X\K 16bb-X	.	.	.	.	.	.
8ccn/J	.	8ff\J 8aan	.	.	8ff\	den	-<i>my-	.
8dd-X\L	4.ryy	4ff-X\ 4aa-X	.	.	[4.ff-X\	Dun-	.	.
*clefF4	*	*	*	*	*	*	*	*
NN(8C\	.	.	.	.	.	.	.	.
[<8B-X\J	.	8bn\ 8ee-X 8ggn	.	]	.	.	.	]
!LO:TX:t=P:problem=mixed beam	!	!	!	!	!	!	!	!
8.e-/L	8B-\L]	4b-X\) 4ddn 4gg-X	.	<	4ff-\]	.	.	<
.	(>8C\	.	.	.	.	.	.	.
16f#X>\K	.	.	.	.	.	.	.	.
8g#X>\J	[<8CC\J)	8ryy	.	[[	8ee-X\	-kel-	-<i>ka	[[
=23	=23	=23	=23	=23	=23	=23	=23	=23
!	!	!LO:TX:b:i:t=ten.	!	!	!	!	!	!LO:HP:a
8CCC/L 8CC]	4.ryy	8B-X/NN) 8d-X 8g-X 8b-X	.	.	[2.dd-X\	-hei-	<i>w da-	>
*clefG2	*	*	*	*	*	*	*	*
(<8B-X/	.	(8gg-X\L 8bb-X	.	f	.	.	.	.
8d-X/J	.	8ffn\J [<8aan	.	.	.	.	.	.
8f-X/L	4.ryy	8.aa\L] 8.ddd-X	.	>	.	.	.	.
8an/	.	.	.	.	.	.	.	.
.	.	16ff-X\K 16aa-X	.	.	.	.	.	.
8b-X/J	.	8ee-X\J 8ggn	.	.	.	.	.	.
8bn\L)	4.ryy	4ddn\ 4ff#X	.	.	8dd-\]	.	.	]
*clefF4	*	*	*	*	*	*	*	*
(8BB-X\	.	.	.	.	8cc-X\	-ten.	-<i>le.	.
[8A-X\J	.	8an\ 8dd-X 8ffn	.	]	8r	.	.	.
!LO:TX:t=P:problem=mixed beam	!	!	!	!	!	!	!	!
8.d-/L	8A-\L]	4.a-X\) 4.ccn 4.een	.	<	4r	.	.	.
.	(>8BBn\	.	.	.	.	.	.	.
16en>\K	.	.	.	.	.	.	.	.
8f#X>\J)	[8BBB-X\J)	.	.	[[	8r	.	.	.
*v	*v	*	*	*	*	*	*	*
=24	=24	=24	=24	=24	=24	=24	=24
*M6/8	*M6/8	*	*	*M6/8	*	*	*
*	*^	*	*	*	*	*	*
!	!	!	!	!LO:HP:t=cresc. e rall. molto:ext=s	!	!	!	!
8BBBB-X/L 8BBB-]	(>8A-X/L 8d-X 8f-X 8a-X	4.ryy	.	<	4r	.	.	.
(8BB-X/	8f-/ 8a- 8ff-X	.	.	.	.	.	.	.
8F-X/J)	8e-X/J 8cc 8ee-X	.	.	.	8r	.	.	.
!	!	!	!	!	!	!	!	!LO:HP:a
8Fn^^\L 8c-X 8dn	(>(>4a-X/ 4ddn 4aa-X	8.cc-X\L	.	.	4ddn\	Plötz-	<i>Na-	<
8FF\	.	.	.	.	.	.	.	.
.	.	16b-X\K	.	.	.	.	.	.
8FFF\J	[<8e-/))) [8cc- [8ee-	8an\J	.	.	8ee-X,\	-lich	-<i>gle	[[
*	*v	*v	*	*	*	*	*	*
!!LO:LB:g=original
=25	=25	=25	=25	=25	=25	=25	=25
*M9/8	*M9/8	*	*	*M9/8	*	*	*
*^	*	*	*	*	*	*	*
!	!	!	!	!	!LO:TX:a:t=Tempo I.	!	!	!LO:DY:a:rj
16%3FFF#X/L 16%3FF#X	4.ryy	(8e-\L] 8g-X 8cc-] 8ee-]	.	f	[2.ff#X\	stehst	<i>po-	f
.	.	8ggn\	.	.	.	.	.	.
(>[16%3F#X/J	.	.	.	.	.	.	.	.
.	.	8ff#X\J 8aa#X	.	.	.	.	.	.
!	!	!	!	!LO:HP:t=dim.	!	!	!	!
8f#X/L	2.F#\_	8ee#X\L 8bbn	.	>	.	.	.	.
8g/	.	8ddn\	.	.	.	.	.	.
8g#X/J	.	8cc#X\J 8ee#	.	.	.	.	.	.
8an/L	.	8b#X\L 8ff#X	.	.	16%3ff#\]	.	.	.
8e/	.	8an\	.	.	.	.	.	.
.	.	.	.	.	16%3ee#X,\	du	-<i>dziw	.
!	!	!LO:TX:b:i:t=rit.	!	!	!	!	!	!
8d#X/J)	.	8g#X\J 8b#	.	.	.	.	.	.
=26	=26	=26	=26	=26	=26	=26	=26	=26
*	*	*^	*	*	*	*	*	*
!	!	!	!	!	!	!	!	!	!LO:HP:a
4.e/	8F#\]	4c#X/ 4cc#X	4.gn\ 4.bn	.	mp <	[2.een^^\	ü-	<i>cię	<
.	[4F#X\	.	.	.	.	.	.	.	.
.	.	[<8d#X/ [8dd#X	.	.	.	.	.	.	.
4.c#X/	8F#\]	4d#/] 4dd#]	4.g\ 4.b 4.cc#	.	.	.	.	.	.
.	[4D#X\	.	.	.	.	.	.	.	.
.	.	[<8e/ [8ee	.	.	.	.	.	.	.
!	!	!LO:TX:b:i:t=rit.	!	!	!	!	!	!	!
4.A#X/	8D#\]	8e/L] 8ee]	4.a-X\ 4.cc#	.	.	16%3ee\]	.	.	[
.	4Cn\	8fn/) 8ffn	.	.	.	.	.	.	.
.	.	.	.	.	.	16%3dd#X\	-ber-	<i>o-	.
.	.	[<8f#X/J [8ff#X	.	.	[	.	.	.	.
=27	=27	=27	=27	=27	=27	=27	=27	=27	=27
!	!	!	!	!	!LO:HP:t=dimin. e rall:ext=s	!	!	!	!LO:HP:a
4.A#X/	(<(<2.FF#X\ 2.E	4.dd#X/	(>4f#\] 4ff#]	.	>	(4.dd#X\	-wäl-	-<i>wład-	>
.	.	.	[<8gn\ [>8ggn	.	.	.	.	.	.
!	!	!	!	!	!	!LO:N:vis=4	!	!	!
4.e/	.	4.ddn/	4g\] 4gg]	.	.	4.ddn\)	.	.	.
.	.	.	[8g#X\ [>8gg#X	.	.	.	.	.	.
!	!	!	!	!	!	!	!	!	!LO:DY:a
4.F#X/	4.FF#\)) 4.E	4.cc#X/	8g#\L] 8gg#]	.	p	4.cc#X\	-tigt.	-<i>nie.	] p
.	.	.	8a\ 8aa	.	.	.	.	.	.
.	.	.	[8a#X\J) [>8aa#X	.	.	.	.	.	.
*v	*v	*	*	*	*	*	*	*	*
!!pagebreak:original
=28	=28	=28	=28	=28	=28	=28	=28	=28
!LO:TX:t=P:problem=mixed beam	!	!	!	!	!	!	!	!
8BBBB/L 8BBB	(4.ff#X/	4a#X\] 4aa#X]	.	pp	8%9r	.	.	.
(8e\	.	.	.	.	.	.	.	.
8Gn\J)	.	[8b\ [>8bb	.	<	.	.	.	.
(8c#X\L	4.ffn/	4b\] 4bb]	.	.	.	.	.	.
8En\)	.	.	.	.	.	.	.	.
(8A#X\J	.	[8b#X\ [>8bb#X	.	.	.	.	.	.
8Cn/)	4.ee/	8b#\L] 8bb#]	.	.	.	.	.	.
4r	.	8cc#X\ 8ccc#X	.	.	.	.	.	.
!	!LO:TX:b:i:t=rit.	!	!	!	!	!	!	!
.	.	8ddn\J) 8dddn	.	[	.	.	.	.
=29	=29	=29	=29	=29	=29	=29	=29	=29
!LO:TX:t=P:problem=mixed beam	!	!	!	!	!	!	!	!
8BBBB/L 8BBB	4.ff#X/	(>4a#X\ 4aa#X	.	<	8%9r	.	.	.
(8e\	.	.	.	.	.	.	.	.
8Gn\J)	.	[8bn\ [>8bbn	.	.	.	.	.	.
(8c#X\L	4.ffn/	4b\] 4bb]	.	.	.	.	.	.
8En\)	.	.	.	.	.	.	.	.
(8A#X\J	.	[8b#X\ [>8bb#X	.	.	.	.	.	.
8Cn/)	4.ee/	8b#\L] 8bb#]	.	.	.	.	.	.
4r	.	8cc#X\ 8ccc#X	.	[	.	.	.	.
!	!LO:TX:b:i:t=rit.	!	!	!	!	!	!	!
.	.	[8dd\J) [>8ddd	.	.	.	.	.	.
*	*v	*v	*	*	*	*	*	*
=30	=30	=30	=30	=30	=30	=30	=30
4.BBBB/ 4.BBB	8dd\L] 8ddd]	.	p <	8%9r	.	.	.
.	(8ddd\	.	.	.	.	.	.
.	8ccc#X\J 8eee#	.	.	.	.	.	.
*clefG2	*	*	*	*	*	*	*
(>4.An/ 4.d#X 4.f#X	8bb#X\L 8fff#X	.	[	.	.	.	.
!	!LO:TX:b:i:t=dim. e rall.	!	!	!	!	!	!
.	8aan\	.	>	.	.	.	.
.	8gg#X\J 8bb#X	.	.	.	.	.	.
4.A#X/ 4.en 4.gn	8ggn\L 8ccc#	.	.	.	.	.	.
.	8een\	.	.	.	.	.	.
.	8dd#X\J 8gg	.	.	.	.	.	.
=31	=31	=31	=31	=31	=31	=31	=31
*^	*	*	*	*	*	*	*
4.e#X/ 4.g#X	[4.B\	4.ddn\ 4.ee#X 4.gg#X	.	.	8%9r;	.	.	.
*	*	*	*below	*	*	*	*	*
2.f#X;/) 2.b	2.B\]	2.dd#X;\) 2.ff#X 2.ddd#X 2.fff#X	1	] pppp	.	.	.	.
*v	*v	*	*	*	*	*	*	*
==	==	==	==	==	==	==	==
*-	*-	*-	*-	*-	*-	*-	*-
!!!system-decoration: s1{(s2,s3)}
!!!RDF**kern: < = below
!!!RDF**kern: > = above
!!!RDF**kern: N = linked
!!!RDF**kern: NN = linked
!!!RDF**kern: Z = editorial accidental, paren
!!!ENC: Andrzej Gręziak
!!!END: 2023-09-27
!!!EED: Marta Chmielewska
!!!EEV: 2023-11-25
